X: 807
T:Polka
S:Vydraga, Piktzirnis (2004)
M:2/4
L:1/8
Z:https://nigelgatherer.com/
K:A
e/e/ | ea g/g/f | ec A/B/c/d/ | ed B/c/d/e/ | fe c2 | 
ea g/g/f | ec A/B/c/d/ | ed B/B/B | A2 A :| 
z | d2 f>g | fe c>B | BB c/c/d | cA A2 |
d2 f>g | fe e>f | gg g/g/g | a2 a :|]

